X:97
T:Planxty Fanny Power
C:O'Carolan
M:3/4
K:G
L:1/8
"G" G4 D2 | G4 (AB) | "Am" c4 B2 | A4 G2 |
"D7" F4 E2 | D4 (ED) | F4 G2 | A4 c2 |
"G" B4 AG | B2 c2 d2 | "C" e4 A2 | "Am" A4 G2 |
"D7" F4 (ED) | D G3 F2 | "G" G6 | G4 D2 :|
"G" d2 Bc d2 | "GM7" d2 Bc d2 | "G6" G4 G2 | "G" G4 G2 |
"C" e2 cd e2 | "CM7" e2 cd e2 | "Am" A4 c2 | "D" A4 dc |
"G" B3 c d2 | "C" e3 f g2 | "D" f3 g a2 | (ud4 .c2) |
"G" B3 A G2 | "D7" A c3 F2 | "G" G6 | G6 :|

